src/activities/railroad/resource/loco4.svg

<?xml version="1.0" encoding="UTF-8" standalone="no"?>
<!-- Created with Inkscape (http://www.inkscape.org/) -->

<svg
   xmlns:dc="http://purl.org/dc/elements/1.1/"
   xmlns:cc="http://creativecommons.org/ns#"
   xmlns:rdf="http://www.w3.org/1999/02/22-rdf-syntax-ns#"
   xmlns:svg="http://www.w3.org/2000/svg"
   xmlns="http://www.w3.org/2000/svg"
   xmlns:xlink="http://www.w3.org/1999/xlink"
   xmlns:sodipodi="http://sodipodi.sourceforge.net/DTD/sodipodi-0.dtd"
   xmlns:inkscape="http://www.inkscape.org/namespaces/inkscape"
   width="240"
   height="100"
   viewBox="0 0 63.499999 26.458334"
   version="1.1"
   id="svg8"
   inkscape:version="0.92.1 r15371"
   sodipodi:docname="loco4.svg">
  <defs
     id="defs2">
    <linearGradient
       inkscape:collect="always"
       id="linearGradient918">
      <stop
         style="stop-color:#e8dbc3;stop-opacity:1;"
         offset="0"
         id="stop914" />
      <stop
         style="stop-color:#baab8d;stop-opacity:0.52549022"
         offset="1"
         id="stop916" />
    </linearGradient>
    <linearGradient
       inkscape:collect="always"
       xlink:href="#linearGradient918"
       id="linearGradient920"
       x1="6.347651"
       y1="13.228492"
       x2="6.347651"
       y2="15.633918"
       gradientUnits="userSpaceOnUse"
       gradientTransform="translate(0,-0.13363476)" />
    <linearGradient
       inkscape:collect="always"
       xlink:href="#linearGradient918"
       id="linearGradient920-5"
       x1="6.347651"
       y1="13.228492"
       x2="6.347651"
       y2="15.633918"
       gradientUnits="userSpaceOnUse"
       gradientTransform="translate(3.1749999,-0.13363476)" />
    <linearGradient
       inkscape:collect="always"
       xlink:href="#linearGradient918"
       id="linearGradient920-5-1"
       x1="6.347651"
       y1="13.228492"
       x2="6.347651"
       y2="15.633918"
       gradientUnits="userSpaceOnUse"
       gradientTransform="translate(51.329169,-0.13363476)" />
    <linearGradient
       inkscape:collect="always"
       xlink:href="#linearGradient918"
       id="linearGradient920-0"
       x1="6.347651"
       y1="13.228492"
       x2="6.347651"
       y2="15.633918"
       gradientUnits="userSpaceOnUse"
       gradientTransform="translate(48.154169,-0.13363476)" />
  </defs>
  <sodipodi:namedview
     id="base"
     pagecolor="#ffffff"
     bordercolor="#666666"
     borderopacity="1.0"
     inkscape:pageopacity="0.0"
     inkscape:pageshadow="2"
     inkscape:zoom="3.959798"
     inkscape:cx="47.349094"
     inkscape:cy="6.9077385"
     inkscape:document-units="mm"
     inkscape:current-layer="layer2"
     showgrid="false"
     units="px"
     inkscape:window-width="1884"
     inkscape:window-height="1051"
     inkscape:window-x="0"
     inkscape:window-y="0"
     inkscape:window-maximized="1"
     inkscape:snap-global="false" />
  <metadata
     id="metadata5">
    <rdf:RDF>
      <cc:Work
         rdf:about="">
        <dc:format>image/svg+xml</dc:format>
        <dc:type
           rdf:resource="http://purl.org/dc/dcmitype/StillImage" />
        <dc:title />
        <dc:date>2018</dc:date>
        <dc:creator>
          <cc:Agent>
            <dc:title>Timothée Giet</dc:title>
          </cc:Agent>
        </dc:creator>
        <cc:license
           rdf:resource="http://creativecommons.org/licenses/by-sa/4.0/" />
      </cc:Work>
      <cc:License
         rdf:about="http://creativecommons.org/licenses/by-sa/4.0/">
        <cc:permits
           rdf:resource="http://creativecommons.org/ns#Reproduction" />
        <cc:permits
           rdf:resource="http://creativecommons.org/ns#Distribution" />
        <cc:requires
           rdf:resource="http://creativecommons.org/ns#Notice" />
        <cc:requires
           rdf:resource="http://creativecommons.org/ns#Attribution" />
        <cc:permits
           rdf:resource="http://creativecommons.org/ns#DerivativeWorks" />
        <cc:requires
           rdf:resource="http://creativecommons.org/ns#ShareAlike" />
      </cc:License>
    </rdf:RDF>
  </metadata>
  <g
     inkscape:groupmode="layer"
     id="layer2"
     inkscape:label="Calque 2">
    <path
       inkscape:connector-curvature="0"
       style="opacity:1;vector-effect:none;fill:#4a4a43;fill-opacity:1;stroke:none;stroke-width:0.34905761;stroke-linecap:butt;stroke-linejoin:miter;stroke-miterlimit:4;stroke-dasharray:none;stroke-dashoffset:0;stroke-opacity:1"
       d="m 4.8756731,18.369421 v 2.173511 H 1.152901 V 21.20439 H 0 v -0.661458 -2.022099 -0.151412 z"
       id="rect849-3-3"
       sodipodi:nodetypes="ccccccccc" />
    <rect
       style="opacity:1;vector-effect:none;fill:#3e3e3e;fill-opacity:1;stroke:none;stroke-width:0.34905761;stroke-linecap:butt;stroke-linejoin:miter;stroke-miterlimit:4;stroke-dasharray:none;stroke-dashoffset:0;stroke-opacity:1"
       id="rect1020"
       width="11.626224"
       height="3.1404181"
       x="7.4835472"
       y="22.048386" />
    <circle
       style="opacity:1;vector-effect:none;fill:#4f4f4f;fill-opacity:1;stroke:none;stroke-width:0.34905761;stroke-linecap:butt;stroke-linejoin:miter;stroke-miterlimit:4;stroke-dasharray:none;stroke-dashoffset:0;stroke-opacity:1"
       id="path985"
       cx="8.2692375"
       cy="24.386995"
       r="2.0713389" />
    <circle
       style="opacity:1;vector-effect:none;fill:#4f4f4f;fill-opacity:1;stroke:none;stroke-width:0.34905761;stroke-linecap:butt;stroke-linejoin:miter;stroke-miterlimit:4;stroke-dasharray:none;stroke-dashoffset:0;stroke-opacity:1"
       id="path985-0"
       cx="18.852571"
       cy="24.386995"
       r="2.0713389" />
    <rect
       style="opacity:1;vector-effect:none;fill:#3e3e3e;fill-opacity:1;stroke:none;stroke-width:0.34905761;stroke-linecap:butt;stroke-linejoin:miter;stroke-miterlimit:4;stroke-dasharray:none;stroke-dashoffset:0;stroke-opacity:1"
       id="rect1020-6"
       width="11.626224"
       height="3.1404181"
       x="44.525215"
       y="22.048386" />
    <circle
       style="opacity:1;vector-effect:none;fill:#4f4f4f;fill-opacity:1;stroke:none;stroke-width:0.34905761;stroke-linecap:butt;stroke-linejoin:miter;stroke-miterlimit:4;stroke-dasharray:none;stroke-dashoffset:0;stroke-opacity:1"
       id="path985-6"
       cx="45.310905"
       cy="24.386995"
       r="2.0713389" />
    <circle
       style="opacity:1;vector-effect:none;fill:#4f4f4f;fill-opacity:1;stroke:none;stroke-width:0.34905761;stroke-linecap:butt;stroke-linejoin:miter;stroke-miterlimit:4;stroke-dasharray:none;stroke-dashoffset:0;stroke-opacity:1"
       id="path985-0-2"
       cx="55.894241"
       cy="24.386995"
       r="2.0713389" />
    <rect
       style="opacity:1;vector-effect:none;fill:#5a4521;fill-opacity:1;stroke:none;stroke-width:0.38479823;stroke-linecap:butt;stroke-linejoin:miter;stroke-miterlimit:4;stroke-dasharray:none;stroke-dashoffset:0;stroke-opacity:1"
       id="rect872-5"
       width="18.508415"
       height="3.0067821"
       x="23.4529"
       y="22.182022" />
    <rect
       style="opacity:1;vector-effect:none;fill:#896421;fill-opacity:1;stroke:none;stroke-width:0.34905761;stroke-linecap:butt;stroke-linejoin:miter;stroke-miterlimit:4;stroke-dasharray:none;stroke-dashoffset:0;stroke-opacity:1"
       id="rect872"
       width="17.572969"
       height="2.6058779"
       x="23.920622"
       y="22.182022" />
    <rect
       style="opacity:1;vector-effect:none;fill:#555555;fill-opacity:1;stroke:none;stroke-width:0.34905761;stroke-linecap:butt;stroke-linejoin:miter;stroke-miterlimit:4;stroke-dasharray:none;stroke-dashoffset:0;stroke-opacity:1"
       id="rect817"
       width="58.264755"
       height="11.091685"
       x="2.6726952"
       y="11.892144"
       ry="1.4699824" />
    <rect
       style="opacity:1;vector-effect:none;fill:#727272;fill-opacity:1;stroke:none;stroke-width:0.30817208;stroke-linecap:butt;stroke-linejoin:miter;stroke-miterlimit:4;stroke-dasharray:none;stroke-dashoffset:0;stroke-opacity:1"
       id="rect817-3"
       width="56.260239"
       height="8.9535294"
       x="3.6749558"
       y="12.961223"
       ry="1.1866122" />
    <path
       style="opacity:1;vector-effect:none;fill:#dedede;fill-opacity:1;stroke:none;stroke-width:1.31927288;stroke-linecap:butt;stroke-linejoin:miter;stroke-miterlimit:4;stroke-dasharray:none;stroke-dashoffset:0;stroke-opacity:1"
       d="M 13.888672 59.59375 L 13.888672 78.341797 C 13.888672 79.151737 14.119586 79.900201 14.492188 80.554688 L 225.92578 80.554688 C 226.29827 79.900273 226.52734 79.151606 226.52734 78.341797 L 226.52734 59.59375 L 13.888672 59.59375 z "
       transform="scale(0.26458333)"
       id="rect836" />
    <path
       style="opacity:1;vector-effect:none;fill:#e4af4f;fill-opacity:1;stroke:none;stroke-width:1.31927288;stroke-linecap:butt;stroke-linejoin:miter;stroke-miterlimit:4;stroke-dasharray:none;stroke-dashoffset:0;stroke-opacity:1"
       d="M 13.888672 71.210938 L 13.888672 78.341797 C 13.888672 80.826395 15.890402 82.828125 18.375 82.828125 L 222.04102 82.828125 C 224.52561 82.828125 226.52734 80.826395 226.52734 78.341797 L 226.52734 71.210938 L 13.888672 71.210938 z "
       transform="scale(0.26458333)"
       id="rect854" />
    <rect
       style="opacity:1;vector-effect:none;fill:#3e3e3e;fill-opacity:1;stroke:none;stroke-width:0.29441369;stroke-linecap:butt;stroke-linejoin:miter;stroke-miterlimit:4;stroke-dasharray:none;stroke-dashoffset:0;stroke-opacity:1"
       id="rect819"
       width="59.400654"
       height="2.0713387"
       x="2.1381562"
       y="21.17976"
       ry="0" />
    <rect
       style="opacity:1;vector-effect:none;fill:url(#linearGradient920);fill-opacity:1;stroke:none;stroke-width:0.34905761;stroke-linecap:butt;stroke-linejoin:miter;stroke-miterlimit:4;stroke-dasharray:none;stroke-dashoffset:0;stroke-opacity:1"
       id="rect889"
       width="2.8731472"
       height="2.1381562"
       x="4.6772165"
       y="13.295309" />
    <rect
       style="opacity:1;vector-effect:none;fill:url(#linearGradient920-5);fill-opacity:1;stroke:none;stroke-width:0.34905761;stroke-linecap:butt;stroke-linejoin:miter;stroke-miterlimit:4;stroke-dasharray:none;stroke-dashoffset:0;stroke-opacity:1"
       id="rect889-9"
       width="2.8731472"
       height="2.1381562"
       x="7.8522182"
       y="13.295309" />
    <rect
       style="opacity:1;vector-effect:none;fill:url(#linearGradient920-0);fill-opacity:1;stroke:none;stroke-width:0.34905761;stroke-linecap:butt;stroke-linejoin:miter;stroke-miterlimit:4;stroke-dasharray:none;stroke-dashoffset:0;stroke-opacity:1"
       id="rect889-93"
       width="2.8731472"
       height="2.1381562"
       x="52.831387"
       y="13.295309" />
    <rect
       style="opacity:1;vector-effect:none;fill:url(#linearGradient920-5-1);fill-opacity:1;stroke:none;stroke-width:0.34905761;stroke-linecap:butt;stroke-linejoin:miter;stroke-miterlimit:4;stroke-dasharray:none;stroke-dashoffset:0;stroke-opacity:1"
       id="rect889-9-6"
       width="2.8731472"
       height="2.1381562"
       x="56.00639"
       y="13.295309" />
  </g>
</svg>

<!--Created with Inkscape (http://www.inkscape.org/)--><svg xmlns:dc="http://purl.org/dc/elements/1.1/" xmlns:cc="http://creativecommons.org/ns#" xmlns:rdf="http://www.w3.org/1999/02/22-rdf-syntax-ns#" xmlns="http://www.w3.org/2000/svg" xmlns:xlink="http://www.w3.org/1999/xlink" xmlns:sodipodi="http://sodipodi.sourceforge.net/DTD/sodipodi-0.dtd" xmlns:inkscape="http://www.inkscape.org/namespaces/inkscape" width="240" height="100" viewBox="0 0 63.499999 26.458334" inkscape:version="0.92.1 r15371" sodipodi:docname="loco4.svg"><defs><linearGradient inkscape:collect="always" id="a"><stop style="stop-color:#e8dbc3;stop-opacity:1" offset="0"/><stop style="stop-color:#baab8d;stop-opacity:.52549022" offset="1"/></linearGradient><linearGradient inkscape:collect="always" xlink:href="#a" id="b" x1="6.347651" y1="13.228492" x2="6.347651" y2="15.633918" gradientUnits="userSpaceOnUse" gradientTransform="translate(0 -.134)"/><linearGradient inkscape:collect="always" xlink:href="#a" id="c" x1="6.347651" y1="13.228492" x2="6.347651" y2="15.633918" gradientUnits="userSpaceOnUse" gradientTransform="translate(3.175 -.134)"/><linearGradient inkscape:collect="always" xlink:href="#a" id="e" x1="6.347651" y1="13.228492" x2="6.347651" y2="15.633918" gradientUnits="userSpaceOnUse" gradientTransform="translate(51.33 -.134)"/><linearGradient inkscape:collect="always" xlink:href="#a" id="d" x1="6.347651" y1="13.228492" x2="6.347651" y2="15.633918" gradientUnits="userSpaceOnUse" gradientTransform="translate(48.154 -.134)"/></defs><sodipodi:namedview pagecolor="#ffffff" bordercolor="#666666" borderopacity="1.0" inkscape:pageopacity="0.0" inkscape:pageshadow="2" inkscape:zoom="3.959798" inkscape:cx="47.349094" inkscape:cy="6.9077385" inkscape:document-units="mm" inkscape:current-layer="layer2" showgrid="false" units="px" inkscape:window-width="1884" inkscape:window-height="1051" inkscape:window-x="0" inkscape:window-y="0" inkscape:window-maximized="1" inkscape:snap-global="false"/><metadata><rdf:RDF><cc:Work><dc:format>image/svg+xml</dc:format><dc:type rdf:resource="http://purl.org/dc/dcmitype/StillImage"/><dc:title/><dc:date>2018</dc:date><dc:creator><cc:Agent><dc:title>Timothée Giet</dc:title></cc:Agent></dc:creator><cc:license rdf:resource="http://creativecommons.org/licenses/by-sa/4.0/"/></cc:Work><cc:License rdf:about="http://creativecommons.org/licenses/by-sa/4.0/"><cc:permits rdf:resource="http://creativecommons.org/ns#Reproduction"/><cc:permits rdf:resource="http://creativecommons.org/ns#Distribution"/><cc:requires rdf:resource="http://creativecommons.org/ns#Notice"/><cc:requires rdf:resource="http://creativecommons.org/ns#Attribution"/><cc:permits rdf:resource="http://creativecommons.org/ns#DerivativeWorks"/><cc:requires rdf:resource="http://creativecommons.org/ns#ShareAlike"/></cc:License></rdf:RDF></metadata><g inkscape:groupmode="layer" inkscape:label="Calque 2"><path inkscape:connector-curvature="0" style="opacity:1;vector-effect:none;fill:#4a4a43;fill-opacity:1;stroke:none;stroke-width:.34905761;stroke-linecap:butt;stroke-linejoin:miter;stroke-miterlimit:4;stroke-dasharray:none;stroke-dashoffset:0;stroke-opacity:1" d="M4.876 18.37v2.173H1.153v.661H0V18.37z" sodipodi:nodetypes="ccccccccc"/><rect style="opacity:1;vector-effect:none;fill:#3e3e3e;fill-opacity:1;stroke:none;stroke-width:.34905761;stroke-linecap:butt;stroke-linejoin:miter;stroke-miterlimit:4;stroke-dasharray:none;stroke-dashoffset:0;stroke-opacity:1" width="11.626224" height="3.1404181" x="7.4835472" y="22.048386"/><circle style="opacity:1;vector-effect:none;fill:#4f4f4f;fill-opacity:1;stroke:none;stroke-width:.34905761;stroke-linecap:butt;stroke-linejoin:miter;stroke-miterlimit:4;stroke-dasharray:none;stroke-dashoffset:0;stroke-opacity:1" cx="8.2692375" cy="24.386995" r="2.0713389"/><circle style="opacity:1;vector-effect:none;fill:#4f4f4f;fill-opacity:1;stroke:none;stroke-width:.34905761;stroke-linecap:butt;stroke-linejoin:miter;stroke-miterlimit:4;stroke-dasharray:none;stroke-dashoffset:0;stroke-opacity:1" cx="18.852571" cy="24.386995" r="2.0713389"/><rect style="opacity:1;vector-effect:none;fill:#3e3e3e;fill-opacity:1;stroke:none;stroke-width:.34905761;stroke-linecap:butt;stroke-linejoin:miter;stroke-miterlimit:4;stroke-dasharray:none;stroke-dashoffset:0;stroke-opacity:1" width="11.626224" height="3.1404181" x="44.525215" y="22.048386"/><circle style="opacity:1;vector-effect:none;fill:#4f4f4f;fill-opacity:1;stroke:none;stroke-width:.34905761;stroke-linecap:butt;stroke-linejoin:miter;stroke-miterlimit:4;stroke-dasharray:none;stroke-dashoffset:0;stroke-opacity:1" cx="45.310905" cy="24.386995" r="2.0713389"/><circle style="opacity:1;vector-effect:none;fill:#4f4f4f;fill-opacity:1;stroke:none;stroke-width:.34905761;stroke-linecap:butt;stroke-linejoin:miter;stroke-miterlimit:4;stroke-dasharray:none;stroke-dashoffset:0;stroke-opacity:1" cx="55.894241" cy="24.386995" r="2.0713389"/><rect style="opacity:1;vector-effect:none;fill:#5a4521;fill-opacity:1;stroke:none;stroke-width:.38479823;stroke-linecap:butt;stroke-linejoin:miter;stroke-miterlimit:4;stroke-dasharray:none;stroke-dashoffset:0;stroke-opacity:1" width="18.508415" height="3.0067821" x="23.4529" y="22.182022"/><rect style="opacity:1;vector-effect:none;fill:#896421;fill-opacity:1;stroke:none;stroke-width:.34905761;stroke-linecap:butt;stroke-linejoin:miter;stroke-miterlimit:4;stroke-dasharray:none;stroke-dashoffset:0;stroke-opacity:1" width="17.572969" height="2.6058779" x="23.920622" y="22.182022"/><rect style="opacity:1;vector-effect:none;fill:#555;fill-opacity:1;stroke:none;stroke-width:.34905761;stroke-linecap:butt;stroke-linejoin:miter;stroke-miterlimit:4;stroke-dasharray:none;stroke-dashoffset:0;stroke-opacity:1" width="58.264755" height="11.091685" x="2.6726952" y="11.892144" ry="1.4699824"/><rect style="opacity:1;vector-effect:none;fill:#727272;fill-opacity:1;stroke:none;stroke-width:.30817208;stroke-linecap:butt;stroke-linejoin:miter;stroke-miterlimit:4;stroke-dasharray:none;stroke-dashoffset:0;stroke-opacity:1" width="56.260239" height="8.9535294" x="3.6749558" y="12.961223" ry="1.1866122"/><path style="opacity:1;vector-effect:none;fill:#dedede;fill-opacity:1;stroke:none;stroke-width:1.31927288;stroke-linecap:butt;stroke-linejoin:miter;stroke-miterlimit:4;stroke-dasharray:none;stroke-dashoffset:0;stroke-opacity:1" d="M13.889 59.594v18.748c0 .81.23 1.558.603 2.213h211.434a4.454 4.454 0 0 0 .601-2.213V59.594H13.89z" transform="scale(.26458)"/><path style="opacity:1;vector-effect:none;fill:#e4af4f;fill-opacity:1;stroke:none;stroke-width:1.31927288;stroke-linecap:butt;stroke-linejoin:miter;stroke-miterlimit:4;stroke-dasharray:none;stroke-dashoffset:0;stroke-opacity:1" d="M13.889 71.21v7.132a4.478 4.478 0 0 0 4.486 4.486h203.666a4.478 4.478 0 0 0 4.486-4.486V71.21H13.89z" transform="scale(.26458)"/><rect style="opacity:1;vector-effect:none;fill:#3e3e3e;fill-opacity:1;stroke:none;stroke-width:.29441369;stroke-linecap:butt;stroke-linejoin:miter;stroke-miterlimit:4;stroke-dasharray:none;stroke-dashoffset:0;stroke-opacity:1" width="59.400654" height="2.0713387" x="2.1381562" y="21.17976" ry="0"/><rect style="opacity:1;vector-effect:none;fill:url(#b);fill-opacity:1;stroke:none;stroke-width:.34905761;stroke-linecap:butt;stroke-linejoin:miter;stroke-miterlimit:4;stroke-dasharray:none;stroke-dashoffset:0;stroke-opacity:1" width="2.8731472" height="2.1381562" x="4.6772165" y="13.295309"/><rect style="opacity:1;vector-effect:none;fill:url(#c);fill-opacity:1;stroke:none;stroke-width:.34905761;stroke-linecap:butt;stroke-linejoin:miter;stroke-miterlimit:4;stroke-dasharray:none;stroke-dashoffset:0;stroke-opacity:1" width="2.8731472" height="2.1381562" x="7.8522182" y="13.295309"/><rect style="opacity:1;vector-effect:none;fill:url(#d);fill-opacity:1;stroke:none;stroke-width:.34905761;stroke-linecap:butt;stroke-linejoin:miter;stroke-miterlimit:4;stroke-dasharray:none;stroke-dashoffset:0;stroke-opacity:1" width="2.8731472" height="2.1381562" x="52.831387" y="13.295309"/><rect style="opacity:1;vector-effect:none;fill:url(#e);fill-opacity:1;stroke:none;stroke-width:.34905761;stroke-linecap:butt;stroke-linejoin:miter;stroke-miterlimit:4;stroke-dasharray:none;stroke-dashoffset:0;stroke-opacity:1" width="2.8731472" height="2.1381562" x="56.00639" y="13.295309"/></g></svg>
